src/images/icon/icon_normal_users.svg

<svg height="20" viewBox="0 0 20 20" width="20" xmlns="http://www.w3.org/2000/svg"><g fill="none" fill-rule="evenodd"><path d="m12.2019231 14.2231571-2.52461536-.7210755c-.416305-.1191172-.73086576-.4612651-.81461537-.8860575l-.15461538-.7787616c1.23091315-.5624885 2.02108991-1.7906674 2.02269231-3.14388908v-1.58521235c.0290741-1.90709668-1.45095524-3.49790444-3.3553846-3.60653114-.9363084-.02872395-1.84428435.32321289-2.51659239.97544607-.67230804.65223317-1.05154045 1.54906914-1.05109986 2.48571626v1.73058116c.00115143 1.35363948.79139969 2.58238028 2.02269228 3.14504278l-.15461538.7776079c-.08413897.4243506-.39862862.7659757-.81461538.8849038l-2.52461534.7210755c-.49541623.1416874-.83682481.5946521-.83653863 1.1098794v2.5912568c0 .3185912.25829744.5768604.57692325.5768604h10.38461525c.3186258 0 .576923-.2582692.576923-.5768604v-2.5912568c-.0002287-.5147997-.3415334-.9671559-.8365384-1.1087257z" fill="#36435c"/><path d="m12.8753847 1.50162993c1.9044294.1086267 3.3844587 1.69943446 3.3553846 3.60653114v1.58521235c-.0016024 1.35322163-.7917792 2.58140054-2.0226923 3.14388911l.1546154.77876157c.0837496.4247924.3983103.7669403.8146153.8860575l2.5246154.7210755c.495005.1415698.8363097.593926.8365384 1.1087257v2.5912568c0 .3185912-.2582972.5768604-.576923.5768604h-3.4235436l.0004666-1.1681172-.0059089-.1765688c-.0740054-1.1105091-.8365868-2.0650054-1.9181711-2.3743351l-1.8843815-.5389789.0848744-.0821675c.8901051-.909556 1.4143319-2.1456729 1.4158938-3.46468287l.0000011-1.58698856c.0267558-1.74759978-.8530364-3.31481512-2.2157696-4.2400425.1024319-.13836609.2179806-.26898724.3437926-.39104257.6723081-.65223318 1.580284-1.00417002 2.5165924-.97544607z" fill="#b6c2cd"/></g></svg>

<?xml version="1.0" encoding="UTF-8"?>
<svg width="20px" height="20px" viewBox="0 0 20 20" version="1.1" xmlns="http://www.w3.org/2000/svg" xmlns:xlink="http://www.w3.org/1999/xlink">
    
    <g id="Dashboard" stroke="none" stroke-width="1" fill="none" fill-rule="evenodd">
        <g id="00-Menu-交互备份" transform="translate(-75.000000, -92.000000)">
            <g id="编组-15" transform="translate(75.000000, 92.000000)">
                <path d="M12.2019231,14.2231571 L9.67730774,13.5020816 C9.26100274,13.3829644 8.94644198,13.0408165 8.86269237,12.6160241 L8.70807699,11.8372625 C9.93899014,11.274774 10.7291669,10.0465951 10.7307693,8.69337342 L10.7307693,7.10816107 C10.7598434,5.20106439 9.27981406,3.61025663 7.3753847,3.50162993 C6.4390763,3.47290598 5.53110035,3.82484282 4.85879231,4.477076 C4.18648427,5.12930917 3.80725186,6.02614514 3.80769245,6.96279226 L3.80769245,8.69337342 C3.80884388,10.0470129 4.59909214,11.2757537 5.83038473,11.8384162 L5.67576935,12.6160241 C5.59163038,13.0403747 5.27714073,13.3819998 4.86115397,13.5009279 L2.33653863,14.2220034 C1.8411224,14.3636908 1.49971382,14.8166555 1.5,15.3318828 L1.5,17.9231396 C1.5,18.2417308 1.75829744,18.5 2.07692325,18.5 L12.4615385,18.5 C12.7801643,18.5 13.0384615,18.2417308 13.0384615,17.9231396 L13.0384615,15.3318828 C13.0382328,14.8170831 12.6969281,14.3647269 12.2019231,14.2231571 Z" id="Path" fill="#36435C"></path>
                <path d="M12.8753847,1.50162993 C14.7798141,1.61025663 16.2598434,3.20106439 16.2307693,5.10816107 L16.2307693,5.10816107 L16.2307693,6.69337342 C16.2291669,8.04659505 15.4389901,9.27477396 14.208077,9.83726253 L14.208077,9.83726253 L14.3626924,10.6160241 C14.446442,11.0408165 14.7610027,11.3829644 15.1773077,11.5020816 L15.1773077,11.5020816 L17.7019231,12.2231571 C18.1969281,12.3647269 18.5382328,12.8170831 18.5384615,13.3318828 L18.5384615,13.3318828 L18.5384615,15.9231396 C18.5384615,16.2417308 18.2801643,16.5 17.9615385,16.5 L17.9615385,16.5 L14.5379949,16.5 L14.5384615,15.3318828 L14.5325526,15.155314 C14.4585472,14.0448049 13.6959658,13.0903086 12.6143815,12.7809789 L10.73,12.242 L10.8148744,12.1598325 C11.7049795,11.2502765 12.2292063,10.0141596 12.2307682,8.69514963 L12.2307693,7.10816107 C12.2575251,5.36056129 11.3777329,3.79334595 10.0149997,2.86811857 C10.1174316,2.72975248 10.2329803,2.59913133 10.3587923,2.477076 C11.0311004,1.82484282 11.9390763,1.47290598 12.8753847,1.50162993 Z" id="形状结合" fill="#B6C2CD"></path>
            </g>
        </g>
    </g>
</svg>
